src/pos-icons/progress-alert.svg

<svg height="24" viewBox="0 0 24 24" width="24" xmlns="http://www.w3.org/2000/svg"><path d="m13 2v2c4.39.54 7.5 4.53 6.96 8.92-.46 3.64-3.32 6.51-6.96 6.96v2c5.5-.6 9.45-5.54 8.85-11.03-.52-4.66-4.19-8.35-8.85-8.85m-2 0c-1.96.18-3.81.95-5.33 2.2l1.43 1.54c1.12-.9 2.47-1.48 3.9-1.68v-2m-6.74 3.61c-1.26 1.52-2.02 3.37-2.21 5.33h2c.19-1.42.75-2.77 1.64-3.9zm-2.2 7.33c.2 1.96.97 3.81 2.21 5.33l1.42-1.43c-.88-1.13-1.45-2.48-1.63-3.9zm5 5.37-1.39 1.37c1.51 1.26 3.37 2.05 5.33 2.26v-2c-1.42-.18-2.77-.75-3.9-1.63zm5.94-5.37v-6h-2v6zm0 4v-2h-2v2z"/></svg>

<?xml version="1.0" encoding="UTF-8"?><!DOCTYPE svg PUBLIC "-//W3C//DTD SVG 1.1//EN" "http://www.w3.org/Graphics/SVG/1.1/DTD/svg11.dtd"><svg xmlns="http://www.w3.org/2000/svg" xmlns:xlink="http://www.w3.org/1999/xlink" version="1.1" id="mdi-progress-alert" width="24" height="24" viewBox="0 0 24 24"><path d="M13,2V4C17.39,4.54 20.5,8.53 19.96,12.92C19.5,16.56 16.64,19.43 13,19.88V21.88C18.5,21.28 22.45,16.34 21.85,10.85C21.33,6.19 17.66,2.5 13,2M11,2C9.04,2.18 7.19,2.95 5.67,4.2L7.1,5.74C8.22,4.84 9.57,4.26 11,4.06V2.06M4.26,5.67C3,7.19 2.24,9.04 2.05,11H4.05C4.24,9.58 4.8,8.23 5.69,7.1L4.26,5.67M2.06,13C2.26,14.96 3.03,16.81 4.27,18.33L5.69,16.9C4.81,15.77 4.24,14.42 4.06,13H2.06M7.06,18.37L5.67,19.74C7.18,21 9.04,21.79 11,22V20C9.58,19.82 8.23,19.25 7.1,18.37H7.06M13,13V7H11V13H13M13,17V15H11V17H13Z" /></svg>
